static/app-dev/python.svg

<svg width="512" height="512" fill="none" xmlns="http://www.w3.org/2000/svg"><path d="M372.12 111.783V238.07c0 29.727-24.095 53.823-53.823 53.823H188.928c-37.397 0-67.709 30.323-67.709 67.72v62.025H78.921c-7.659 0-15.015-1.515-21.901-4.566-20.605-25.412-36.425-54.847-46.122-86.946-.763-7.92-1.16-16.374-1.16-25.36 0-78.461 30.981-116.872 69.183-116.872H256.71v-18.223H138.386v-57.887c0-29.393 52.328-53.227 116.872-53.227S372.12 82.39 372.12 111.783Z" fill="#3876AC"/><path d="M189.325 138.127c11.877 0 21.506-9.628 21.506-21.506 0-11.877-9.629-21.506-21.506-21.506s-21.506 9.629-21.506 21.506c0 11.878 9.629 21.506 21.506 21.506Z" fill="#F2F2F2"/><path d="M502.951 298.026c0 11.786-.7 22.674-2.017 32.653 0 .01 0 .01-.01.021a254.947 254.947 0 0 1-37.345 75.149v.01c-9.028 6.029-19.132 9.028-29.8 9.028H255.99v18.233h118.314v49.957a253.049 253.049 0 0 1-32.507 14.19 253.178 253.178 0 0 1-27.961 8.171h-.01C295.236 509.733 275.895 512 256 512c-41.535 0-80.75-9.885-115.43-27.439V364.722c0-29.727 24.106-53.833 53.833-53.833h129.369c37.397 0 67.709-30.313 67.709-67.709v-62.025h42.297c38.202-.001 69.173 37.615 69.173 116.871Z" fill="#F7CD00"/><path d="M344.879 486.17c0 4.065-1.128 7.868-3.082 11.097a253.178 253.178 0 0 1-27.961 8.171h-.01c-7.084-3.511-11.954-10.825-11.954-19.268 0-11.88 9.624-21.504 21.504-21.504 11.879 0 21.503 9.624 21.503 21.504Z" fill="#F2F2F2"/></svg>

<svg width="512" height="512" viewBox="0 0 512 512" fill="none"
	xmlns="http://www.w3.org/2000/svg">
	<path d="M372.12 111.783V238.07C372.12 267.797 348.025 291.893 318.297 291.893H188.928C151.531 291.893 121.219 322.216 121.219 359.613V421.638H78.921C71.262 421.638 63.906 420.123 57.02 417.072C36.415 391.66 20.595 362.225 10.898 330.126C10.135 322.206 9.73804 313.752 9.73804 304.766C9.73804 226.305 40.719 187.894 78.921 187.894H256.71V169.671H138.386V111.784C138.386 82.3906 190.714 58.5566 255.258 58.5566C319.802 58.5566 372.12 82.3896 372.12 111.783Z" fill="#3876AC"/>
	<path d="M189.325 138.127C201.202 138.127 210.831 128.499 210.831 116.621C210.831 104.744 201.202 95.1152 189.325 95.1152C177.448 95.1152 167.819 104.744 167.819 116.621C167.819 128.499 177.448 138.127 189.325 138.127Z" fill="#F2F2F2"/>
	<path d="M502.951 298.026C502.951 309.812 502.251 320.7 500.934 330.679C500.934 330.689 500.934 330.689 500.924 330.7C492.617 357.961 479.901 383.29 463.579 405.849V405.859C454.551 411.888 444.447 414.887 433.779 414.887H255.99V433.12H374.304V483.077C363.865 488.531 353.009 493.286 341.797 497.267C332.706 500.506 323.375 503.233 313.836 505.438H313.826C295.236 509.733 275.895 512 256 512C214.465 512 175.25 502.115 140.57 484.561V364.722C140.57 334.995 164.676 310.889 194.403 310.889H323.772C361.169 310.889 391.481 280.576 391.481 243.18V181.155H433.778C471.98 181.154 502.951 218.77 502.951 298.026Z" fill="#F7CD00"/>
	<path d="M344.879 486.17C344.879 490.235 343.751 494.038 341.797 497.267C332.706 500.506 323.375 503.233 313.836 505.438H313.826C306.742 501.927 301.872 494.613 301.872 486.17C301.872 474.29 311.496 464.666 323.376 464.666C335.255 464.666 344.879 474.29 344.879 486.17Z" fill="#F2F2F2"/>
</svg>
